X:1
T:Title
%%score { ( 1 3 ) | 2 }
L:1/8
M:4/4
K:G
V:1 treble nm="Grand Piano"
V:3 treble 
V:2 bass 
V:1
 z4 z2[Q:1/4=108] D2 | B2 B2 B2 B2 | d2 c2 B4 | AAAA B2 c2 | B4 G2 D2 | B2 B2 B2 B2 | d2 c2 B4 | %7
 A[FA][FA][FA] [Fd]2 [Fd]2 |[M:9/8] ^c2- [Gc]- [Gc] [Fd]2- [Fd] [Fd]2 | %9
[M:4/4] [Fd]2 [FA]2 [GB]2 [Ac]2 | B2 A2 G4 | [Fd][Fd][Fd][Fd] [Fd]2 [Fc]2 | B4 G2 d2 | %13
 d2 B2 c2 B2 | [EA]2 [EG]2 E4 | DDDD B2 G2 | A4 [B,G]2 z2 | [EG][EG][EG][EG] [Ec]2 [Ec]2 | %18
 [Ec]4 [DB]4 | [DA][FA][FA][FA] [Fd]2 [Fd]2 |[M:9/8] ^c2- [Gc]- [Gc] [Fd]2- [Fd] [Fd]2 | %21
[M:4/4] d2 B2 c2 B2 | [EA]2 [EG]2 E4 | DDDD B2 G2 |[M:8/4] A4 .[B,G]4 z8 |] %25
V:2
 z4 z2 [G,B,]2 | [G,D]2 [G,D]2 [G,D]2 [G,D]2 | [F,A,D]2 [D,F,D]2 [G,D]4 | %3
 [D,F,D][D,F,D][D,F,D][D,F,D] [D,G,D]2 [D,A,D]2 | [G,D]4 [G,B,D]2 [G,B,]2 | %5
 [G,D]2 [G,D]2 [G,D]2 [G,D]2 | [F,A,D]2 [D,F,D]2 [G,D]4 | [D,F,D][D,D][D,D][D,D] [D,A,]2 [D,A,]2 | %8
[M:9/8] [A,,A,]3- [A,,A,] [D,A,]2- [D,A,] [D,A,]2 |[M:4/4] [D,A,]2 [D,D]2 [D,D]2 [D,D]2 | %10
 [G,DG]2 [G,CD]2[K:bass] [G,B,D]4 | [D,A,][D,A,][D,A,][D,A,] [D,A,]2 [D,D]2 | %12
 [G,DG]4 [G,B,D]2 [G,B,G]2 | [G,B,G]2 [G,DG]2 [G,EG]2 [G,DG]2 | [C,C]2 [C,C]2 [C,G,C]4 | %15
 [D,G,B,][D,G,B,][D,G,B,][D,G,B,] [D,G,D]2 [D,G,B,]2 | [D,F,C]4 [G,,G,]2 z2 | %17
 [C,G,][C,C][C,C][C,C] [C,G,]2 [C,G,]2 | [G,,G,]4 [G,,G,]4 | %19
 [D,F,][D,D][D,D][D,D] [D,A,]2 [D,A,]2 |[M:9/8] [A,,A,]3- [A,,A,] [D,A,]2- [D,A,] [D,C]2 | %21
[M:4/4][K:treble] [G,B,G]2 [G,DG]2 [G,EG]2 [G,DG]2 | [C,C]2 [C,C]2 [C,G,C]4 | %23
 [D,G,B,][D,G,B,][D,G,B,][D,G,B,] [D,G,D]2 [D,G,B,]2 |[M:8/4] [D,F,C]4 .[G,,G,]4 z8 |] %25
V:3
 x8 | x8 | x8 | x8 | x8 | x8 | x8 | x8 |[M:9/8] .E3 z3 z3 |[M:4/4] x8 | x8 | x8 | x8 | x8 | x8 | %15
 x8 | x8 | x8 | x8 | x8 |[M:9/8] .E3 z3 z3 |[M:4/4] x8 | x8 | x8 |[M:8/4] x16 |] %25

